X:768
T:The Twist of Fate
C:Colin Hume, 1980
L:1/4
M:2/2
S:Colin Hume's website,  colinhume.com  - chords can also be printed below the stave.
Q:1/2=105
K:G
P:A
[| "G"g2 "D"f2 | "C"e2- "/"ee/f/ | "G"gd "/"Bd | "Am"ec "D7"AB/c/ |\
"Bm"dB "Em"GB | "Am"cA "B7"FG/A/ | "Em"B/A/G/F/ "A7"E3/D/ | "D"D2- "/"Dd |
"Em"Be "F#7"^cf | "Bm"d3/^c/ "/"Bf | "G"dg "A7"ea | "D"f3/e/ "D7"d e/f/ |\
"G"g2 "D"f2 | "C"e3/f/ "/"gf/e/ | "G"dg "D7"f/g/a/f/ | "G"g2- "/"g2 |]
K:Gm
P:B
|: "Gm"G2 "/"d2 | "F"c2 "/"AB | "Cm"c2 "/"g2 | "Bb"f2- "/"fd |\
"Cm"e/d/c "/"cB/c/ | "Gm"d/c/B "/"B3/d/ | "F"cA "/"Bc | "D"d2- "D7"d=e/^f/ |
K:G
| "G"gd "/"gd | "C"e/d/c/B/ "D7"AB/c/ | "Bm"dB "A7"AG | "D"F2 "D7"EF |\
"G"G2 "G7"d2 | "C"ec "D7"AF | "G"G2- "C"G2- | "G"G2 "D7"z2 :|

